X:50
T:The Fiddlers are Coming Tonight
R:Reel
M:C|
L:1/8
K:Am
|:"Am"AAe2 AAAA | "Am"ABA2 "G"GGGG | "Am"AAe2 AAAA | "G"AGEG "Am"A2Az :|
|:"Am"A2A2 GEEE | "G"G2G2 GAAG | "Am"A2c2 BAAG | "G"AABB "Am"GGAz :|
